svg/color/metaon.svg

<svg width="40" height="40" viewBox="0 0 40 40" fill="none" xmlns="http://www.w3.org/2000/svg">
<g clip-path="url(#clip0_821_4113)">
<path d="M20 0C31.0457 0 40 8.9543 40 20C40 31.0457 31.0457 40 20 40C8.95431 40 7.90517e-06 31.0457 0 20C6.58765e-07 8.95431 8.95431 1.97595e-06 20 0Z" fill="#CDE1F9"/>
<path d="M26 6C30.4183 6 34 9.58172 34 14V26C34 30.4183 30.4183 34 26 34H14C9.58172 34 6 30.4183 6 26V14C6 9.58172 9.58172 6 14 6H26Z" fill="#0467DF"/>
<path d="M15.7625 13.3583C14.1225 13.3583 12.6933 14.4249 11.7033 15.9524C10.5867 17.6733 10 19.9024 10 22.0408C10 22.6291 10.0583 23.1816 10.175 23.6849C10.2323 23.9285 10.3061 24.168 10.3958 24.4016C10.4818 24.6209 10.5852 24.833 10.705 25.0358C11.285 26.0016 12.22 26.6416 13.6992 26.6416C14.9467 26.6416 15.8933 26.0824 17.0033 24.6049C17.6367 23.7616 17.9567 23.2499 19.2225 21.0049L19.8525 19.8891L20.0075 19.6183C20.0583 19.7016 20.1083 19.7816 20.16 19.8683L21.9533 22.8641C22.5567 23.8724 23.3408 24.9941 24.0117 25.6258C24.8833 26.4483 25.6717 26.6424 26.5617 26.6424C27.4575 26.6424 28.125 26.3466 28.6075 25.9399C28.8769 25.7099 29.1052 25.4357 29.2825 25.1291C29.7342 24.3466 30 23.3566 30 22.0083C30 19.7416 29.4325 17.5441 28.2633 15.7999C27.195 14.2066 25.7992 13.3583 24.3333 13.3583C23.4608 13.3583 22.5933 13.7474 21.7892 14.4483C21.2458 14.9233 20.7417 15.5233 20.2725 16.1566C19.6975 15.4274 19.16 14.8674 18.6408 14.4433C17.6558 13.6383 16.7117 13.3574 15.7625 13.3574V13.3583ZM24.2292 15.0691C25.185 15.0691 26.0525 15.7008 26.7225 16.7349C27.6658 18.1916 28.095 20.2308 28.095 22.0683C28.095 23.3583 27.7883 24.4849 26.5625 24.4849C26.0792 24.4849 25.7067 24.2933 25.1758 23.6483C24.7625 23.1474 24.0567 22.0833 22.8158 20.0166L22.3017 19.1599C21.9675 18.6009 21.6187 18.0507 21.2558 17.5099C21.3142 17.4191 21.3733 17.3233 21.4317 17.2374C22.365 15.8483 23.1958 15.0691 24.2292 15.0691ZM15.7283 15.5299C16.7825 15.5299 17.4433 16.1891 17.9575 16.7349C18.2133 17.0074 18.5717 17.4608 18.9858 18.0508L18.1358 19.3558C17.505 20.3249 16.5675 21.8699 15.7717 22.9708C14.7792 24.3449 14.2633 24.4849 13.7 24.4849C13.2633 24.4849 12.835 24.2874 12.5475 23.8233C12.3283 23.4683 12.1608 22.8816 12.1608 22.1183C12.1608 20.2674 12.6858 18.3391 13.5442 17.0449C13.9225 16.4724 14.3475 16.0233 14.8217 15.7674C15.0991 15.6133 15.4109 15.5316 15.7283 15.5299Z" fill="white"/>
</g>
<defs>
<clipPath id="clip0_821_4113">
<rect width="40" height="40" fill="white"/>
</clipPath>
</defs>
</svg>

<svg xmlns="http://www.w3.org/2000/svg" width="40" height="40" fill="none" viewBox="0 0 40 40"><g clip-path="url(#metaon_svg-a)"><path fill="#CDE1F9" d="M20 0c11.046 0 20 8.954 20 20s-8.954 20-20 20S0 31.046 0 20 8.954 0 20 0"/><path fill="#0467DF" d="M26 6a8 8 0 0 1 8 8v12a8 8 0 0 1-8 8H14a8 8 0 0 1-8-8V14a8 8 0 0 1 8-8z"/><path fill="#fff" d="M15.763 13.358c-1.64 0-3.07 1.067-4.06 2.594C10.587 17.673 10 19.902 10 22.041c0 .588.058 1.14.175 1.644q.086.366.22.717.13.329.31.634c.58.966 1.515 1.606 2.994 1.606 1.248 0 2.194-.56 3.304-2.037.634-.843.954-1.355 2.22-3.6l.63-1.116.154-.27c.051.083.101.163.153.25l1.793 2.995c.604 1.008 1.388 2.13 2.059 2.762.871.822 1.66 1.016 2.55 1.016.895 0 1.563-.295 2.046-.702.269-.23.497-.504.674-.81.452-.783.718-1.773.718-3.122 0-2.266-.567-4.464-1.737-6.208-1.068-1.593-2.464-2.442-3.93-2.442-.872 0-1.74.39-2.544 1.09-.543.475-1.047 1.075-1.517 1.709-.574-.73-1.112-1.29-1.631-1.714-.985-.805-1.93-1.086-2.878-1.086zm8.466 1.711c.956 0 1.823.632 2.494 1.666.943 1.457 1.372 3.496 1.372 5.333 0 1.29-.307 2.417-1.532 2.417-.484 0-.856-.192-1.387-.837-.413-.5-1.12-1.565-2.36-3.631l-.514-.857a37 37 0 0 0-1.046-1.65c.058-.09.117-.187.176-.273.933-1.389 1.764-2.168 2.797-2.168m-8.5.46c1.053 0 1.714.66 2.229 1.206.255.272.614.726 1.028 1.316l-.85 1.305c-.631.969-1.569 2.514-2.364 3.615-.993 1.374-1.509 1.514-2.072 1.514-.437 0-.865-.198-1.152-.662-.22-.355-.387-.941-.387-1.705 0-1.85.525-3.779 1.383-5.073.378-.573.803-1.022 1.278-1.278a1.9 1.9 0 0 1 .906-.237"/></g><defs><clipPath id="metaon_svg-a"><path fill="#fff" d="M0 0h40v40H0z"/></clipPath></defs></svg>
